public/assets/img/material-icons/unfold_less.svg

<svg height="24" viewBox="0 0 24 24" width="24" xmlns="http://www.w3.org/2000/svg"><path d="m7.41 18.59 1.42 1.41 3.17-3.17 3.17 3.17 1.41-1.41-4.58-4.59zm9.18-13.18-1.42-1.41-3.17 3.17-3.17-3.17-1.42 1.41 4.59 4.59z"/></svg>

<svg xmlns="http://www.w3.org/2000/svg" width="24" height="24" viewBox="0 0 24 24"><path d="M7.41 18.59 8.83 20 12 16.83 15.17 20l1.41-1.41L12 14l-4.59 4.59zm9.18-13.18L15.17 4 12 7.17 8.83 4 7.41 5.41 12 10l4.59-4.59z"/></svg>
